!!!COM: Haydn, Franz Joseph
!!!OTL: String Quartet in F Major
!!!OPS: Opus 17
!!!ONM: No. 2
!!!OMD: Adagio
!!!OMV: 3
!!!SCT: H III:26
!!!SCA: Thematisch-bibliographisches Werkevererzeichnis (A. van Hoboken)
!!!YOR: Trautwein Edition
!!!ENC: Frances Bennion
!!!CDT: 1732/3/31/-1809/5/31/
!!!CNT: Oesterreich
!!!YEC: Copyright (c) 1994, 2000 Center for Computer Assisted Research in the Humanities
!!!YEM: Rights to all derivative editions reserved.
!!!YEM: Refer to licensing agreement for further details.
!!!YEN: United States of America
**kern	**kern	**kern	**kern
*k[b-e-]	*k[b-e-]	*k[b-e-]	*k[b-e-]
*B-:	*B-:	*B-:	*B-:
*clefF4	*clefC3	*clefG	*clefG
*M4/4	*M4/4	*M4/4	*M4/4
4r	4r	4r	2.ff
4B-	4f	4d	.
4B-	4f	4d	.
4B-	4f	4d	16ee-
.	.	.	16dd
.	.	.	16cc
.	.	.	16b-
=2	=2	=2	=2
4r	4r	4r	8ff
.	.	.	8ee-
4B-	4g	4e-	4.ee-
4B-	4g	4e-	.
.	.	.	8ee-
4B-	4g	4e-	8ff
.	.	.	8gg
=3	=3	=3	=3
4r	4r	4r	8gg
.	.	.	8cc
4A	4f	4e-	4.cc
4A	4f	4e-	.
.	.	.	8cc
4A	4f	4e-	8dd
.	.	.	8ee-
=4	=4	=4	=4
4r	4r	4r	12ee-
.	.	.	12dd
.	.	.	12ee-
4B-	4f	4d	4.dd
4B-	4f	4d	.
.	.	.	8ff
4D	4f	4b-	8ff
.	.	.	8bb-
=5	=5	=5	=5
4r	4r	4r	8bb-
.	.	.	8cc
4E-	4g	4b-	4.cc
4F	4f	4a	.
.	.	.	8cc
4F	4c	4a	8dd
.	.	.	8ee-
=6	=6	=6	=6
4r	4r	4r	8dd
.	.	.	16cc
.	.	.	16b-
4BB-	4d	4b-	4b-
4BB-	4d	4b-	2r
4BB-	4d	4b-	.
=7	=7	=7	=7
4r	4r	4r	[3..f
4BB-	4F	4d	.
4BB-	4F	4d	.
.	.	.	24f]
.	.	.	8f
4BB-	4B-	4d	8g
.	.	.	8d
=8	=8	=8	=8
4r	4r	4r	8f
.	.	.	8e-
4BB-	4G	4c	4.e-
4BB-	4G	4c	.
.	.	.	8e-
4BB-	4G	4c	8f
.	.	.	8g
=9	=9	=9	=9
4r	4r	4r	8g
.	.	.	8c
4AA	4F	4e-	4.c
4AA	4F	4e-	.
.	.	.	8c
4AA	4F	4e-	8d
.	.	.	8e-
=10	=10	=10	=10
4r	4r	4r	8e-
.	.	.	16d
.	.	.	16e-
4BB-	4F	4d	4.d
4BB-	4F	4d	.
.	.	.	8f
4DD	4F	4B-	8f
.	.	.	8b-
=11	=11	=11	=11
4r	4r	4r	8b-
.	.	.	8c
4EE-	4G	4B-	4.c
4FF	4F	4A	.
.	.	.	8c
4FF	4C	4A	8d
.	.	.	8e-
=12	=12	=12	=12
4r	4r	4r	8d
.	.	.	16c
.	.	.	16B-
4BB-	4D	4B-	4B-
4BB-	4D	4B-	2r
4BB-	4D	4B-	.
=13	=13	=13	=13
4r	4r	4r	2.ff
4B-	4f	4dd	.
4B-	4f	4dd	.
4B-	4f	4dd	16ee
.	.	.	16ff
.	.	.	16gg
.	.	.	16ff
=14	=14	=14	=14
4r	4r	4r	8ff
.	.	.	8cc
4A	4f	4cc	3cc
4A	4f	4cc	.
.	.	.	12dd
.	.	.	12ee
4A	4f	4cc	12ff
.	.	.	12gg
.	.	.	12aa
=15	=15	=15	=15
4r	4r	4r	3..bb-
4G	4f	4b-	.
4c	4e	4b-	.
.	.	.	12gg
.	.	.	12ee
4c	4e	4b-	12cc
.	.	.	12dd
.	.	.	12b-
=16	=16	=16	=16
4r	4r	4r	4b-
4F	4f	4a	4a
4F	4c	4a	2r
4F	4c	4a	.
=17	=17	=17	=17
4r	4r	4r	2.f
4BB-	4f	4d	.
4BB-	4F	4d	.
4BB-	4F	4d	16e
.	.	.	16f
.	.	.	16g
.	.	.	16f
=18	=18	=18	=18
4r	4r	4r	8f
.	.	.	8c
4AA	4F	4c	3c
4AA	4F	4c	.
.	.	.	12d
.	.	.	12e
4AA	4F	4c	12f
.	.	.	12g
.	.	.	12a
=19	=19	=19	=19
4r	4r	4r	3..b-
4GG	4F	4B-	.
4C	4E	4B-	.
.	.	.	12g
.	.	.	12e
4C	4E	4B-	12c
.	.	.	12d
.	.	.	12B-
=20	=20	=20	=20
4r	4r	4r	4B-
4FF	4F	4A	8A
.	.	.	8f
4AA	4F	4c	4.f
4AA	4F	4c	.
.	.	.	8e-
=21	=21	=21	=21
4r	4r	4r	12e-
.	.	.	12c#
.	.	.	12d
4BB-	4F	4d	3d
4BB-	4F	4d	.
.	.	.	12f#
.	.	.	12g
4BB-	4d	4d	12a
.	.	.	12b-
.	.	.	12g
=22	=22	=22	=22
4r	4r	12G	2e
.	.	12e	.
.	.	12c	.
4C	4c	12G	.
.	.	12e	.
.	.	12c	.
4C	4c	12G	2r
.	.	12e	.
.	.	12c	.
4C	4c	12G	.
.	.	12e	.
.	.	12c	.
=23	=23	=23	=23
4r	4r	12G	1ee
.	.	12e	.
.	.	12B-	.
4C	4B-	12G	.
.	.	12e	.
.	.	12B-	.
4C	4B-	12G	.
.	.	12e	.
.	.	12B-	.
4C	4B-	12G	.
.	.	12e	.
.	.	12B-	.
=24	=24	=24	=24
4r	4r	12A	12ff
.	.	12f	12ccc
.	.	12c	12aa
4C	4A	12A	12ff
.	.	12f	12cc
.	.	12c	12a
4C	4A	12A	12f
.	.	12f	12c
.	.	12c	12A
4C	4A	12A	12ff
.	.	12f	12ff
.	.	12c	12ff
=25	=25	=25	=25
4r	4r	12G	1ee
.	.	12e	.
.	.	12B-	.
4C	4b-	12G	.
.	.	12e	.
.	.	12B-	.
4C	4b-	12G	.
.	.	12e	.
.	.	12B-	.
4C	4b-	12G	.
.	.	12e	.
.	.	12B-	.
=26	=26	=26	=26
4r	4r	12A	12ff
.	.	12f	12ccc
.	.	12c	12aa
4C	4f	12A	12ff
.	.	12f	12cc
.	.	12c	12a
4C	4f	12A	12f
.	.	12f	12c
.	.	12c	12A
4C	4f	12A	12ff
.	.	12f	12ff
.	.	12c	12ff
=27	=27	=27	=27
4r	4r	12A	1ccc
.	.	12f#	.
.	.	12e-	.
4AA	4f#	12A	.
.	.	12f#	.
.	.	12e-	.
4AA	4f#	12A	.
.	.	12f#	.
.	.	12e-	.
4AA	4f#	12A	.
.	.	12f#	.
.	.	12e-	.
=28	=28	=28	=28
4r	4r	12B-	12bb-
.	.	12g	12aa
.	.	12d	12gg
4BB-	4d	12B-	12gg
.	.	12g	12gg
.	.	12d	12gg
4BB-	4d	12B-	12gg
.	.	12g	12gg
.	.	12d	12gg
4BB-	4d	12B-	12gg
.	.	12g	12bb-
.	.	12d	12gg
=29	=29	=29	=29
4C	4r	12c	12ee
.	.	12g	12dd
.	.	12e	12cc
4r	4e	12c	12cc
.	.	12g	12cc
.	.	12e	12cc
4E	4e	12c	12cc
.	.	12g	12cc
.	.	12e	12cc
4r	4e	12c	12cc
.	.	12g	12ee
.	.	12e	12cc
=30	=30	=30	=30
4F	4f	12c	12cc
.	.	12a	12ff
.	.	12f	12cc
4r	4r	12c	12cc
.	.	12a	12cc
.	.	12f	12cc
4B-	4e	12c	12cc
.	.	12b-	12gg
.	.	12g	12cc
4r	4r	12c	12cc
.	.	12b-	12cc
.	.	12g	12cc
=31	=31	=31	=31
4A	4f	4f	12cc
.	.	.	12aa
.	.	.	12gg
4r	4r	4r	12ff
.	.	.	12ee
.	.	.	12ff
4AA	4f	4f	12cc
.	.	.	12ff
.	.	.	12ee
4r	4r	4r	12ee-
.	.	.	12dd
.	.	.	12cc#
=32	=32	=32	=32
4BB-	4F	4f	12dd
.	.	.	12bb-
.	.	.	12aa
2.r	2.r	2.r	12gg
.	.	.	12ccc#
.	.	.	12ddd
.	.	.	12aa
.	.	.	12bb-
.	.	.	12ff#
.	.	.	12gg
.	.	.	12bb-
.	.	.	12dd
=33	=33	=33	=33
4B-	4c	4g	12ff
.	.	.	12ee
.	.	.	12gg
4r	4r	4r	12ccc
.	.	.	12gg
.	.	.	12ee
4A	4c	4f	12ff
.	.	.	12fff
.	.	.	12eee
4r	4r	4r	12eee-
.	.	.	12ddd
.	.	.	12ccc#
=34	=34	=34	=34
4B-	4d	4f	12ddd
.	.	.	12fff
.	.	.	12aa
8.r	8.r	8.r	12bb-
.	.	.	12ddd
.	.	.	12b
16d	16A-	16f	.
4c	4A	4f	4cc
4C	4B-	4e	4gg
=35	=35	=35	=35
4F	4A	4f	12ff
.	.	.	12cc
.	.	.	12cc
2.r	2.r	2.r	12cc
.	.	.	12cc
.	.	.	12cc
.	.	.	12b
.	.	.	12cc
.	.	.	12cc
.	.	.	12cc
.	.	.	12cc
.	.	.	12cc
=36	=36	=36	=36
4C	2r	12r	3..cc
.	.	12cc	.
.	.	12b	.
2.r	.	12b-	.
.	.	12a	.
.	.	12a-	.
.	4e	4g	.
.	.	.	12b
.	.	.	12cc
.	4f	4a-	12dd-
.	.	.	12cc
.	.	.	12b
=37	=37	=37	=37
4CC	4e	12g	3..cc
.	.	12cc	.
.	.	12b	.
2.r	4r	12b-	.
.	.	12a	.
.	.	12a-	.
.	4e	4g	.
.	.	.	12b
.	.	.	12cc
.	4f	4a-	12dd-
.	.	.	12cc
.	.	.	12b
=38	=38	=38	=38
4C	4e	12g	2cc
.	.	12cc	.
.	.	12b	.
4r	4r	12b-	.
.	.	12a	.
.	.	12a-	.
12CC	12C	2g	2bb-
12C	12c	.	.
12D-	12d-	.	.
12D	12d	.	.
12E-	12e-	.	.
12E	12e	.	.
=39	=39	=39	=39
12F	12f	3..f	3..aa
12AA	12A	.	.
12BB-	12B-	.	.
12BB	12B	.	.
12C	12c	.	.
12C#	12c#	.	.
4D	4d	.	.
.	.	12aa	12fff
.	.	12aa	12fff
4BB	4B	12aa	12fff
.	.	12aa	12fff
.	.	12aa	12fff
=40	=40	=40	=40
12C	12c	[4.aa	4.fff
12C	12c	.	.
12C	12c	.	.
12C	12c	.	.
12C	12c	.	.
.	.	24aa]	8aa
12C	12c	12f	.
12C	12c	12f	2gg
12C	12c	12f	.
12C	12c	12f	.
12C	12B-	12e	.
12C	12B-	12e	.
12C	12B-	12e	.
=41	=41	=41	=41
4F	12A	1f	1ff
.	12f	.	.
.	12c	.	.
4F	12A	.	.
.	12f	.	.
.	12c	.	.
4F	12A	.	.
.	12f	.	.
.	12c	.	.
4F	12A	.	.
.	12f	.	.
.	12c	.	.
=42	=42	=42	=42
4r	12A	1cc	1ee-
.	12f	.	.
.	12c	.	.
4F	12A	.	.
.	12f	.	.
.	12c	.	.
4F	12A	.	.
.	12f	.	.
.	12c	.	.
4F	12A	.	.
.	12f	.	.
.	12c	.	.
=43	=43	=43	=43
4r	12B-	1b-	1dd-
.	12f	.	.
.	12d-	.	.
4F	12B-	.	.
.	12f	.	.
.	12d-	.	.
4F	12B-	.	.
.	12f	.	.
.	12d-	.	.
4F	12B-	.	.
.	12f	.	.
.	12d-	.	.
=44	=44	=44	=44
4r	12B-	1dd-	[1bb-
.	12g	.	.
.	12d-	.	.
4E-	12B-	.	.
.	12g	.	.
.	12d-	.	.
4E-	12B-	.	.
.	12g	.	.
.	12d-	.	.
4E-	12B-	.	.
.	12g	.	.
.	12d-	.	.
=45	=45	=45	=45
4r	12B-	1dd	1bb-]
.	12g	.	.
.	12d	.	.
4D	12B-	.	.
.	12g	.	.
.	12d	.	.
4D	12B-	.	.
.	12g	.	.
.	12d	.	.
4D	12B-	.	.
.	12g	.	.
.	12d	.	.
=46	=46	=46	=46
4r	12B-	1ee	1ggg
.	12g	.	.
.	12e	.	.
4C#	12B-	.	.
.	12g	.	.
.	12e	.	.
4C#	12B-	.	.
.	12g	.	.
.	12e	.	.
4C#	12B-	.	.
.	12g	.	.
.	12e	.	.
=47	=47	=47	=47
4r	12A	2dd	2fff#
.	12f#	.	.
.	12d	.	.
4D	12A	.	.
.	12f#	.	.
.	12d	.	.
4D	12A	2f#	2ddd
.	12f#	.	.
.	12d	.	.
4D	12A	.	.
.	12f#	.	.
.	12d	.	.
=48	=48	=48	=48
4r	12G	1b-	2ccc#
.	12e	.	.
.	12c#	.	.
4D	12G	.	.
.	12e	.	.
.	12c#	.	.
4D	12g	.	2gg
.	12e	.	.
.	12c#	.	.
4D	12G	.	.
.	12e	.	.
.	12c#	.	.
=49	=49	=49	=49
4r	12d	2a	2ff#
.	12F#	.	.
.	12A	.	.
4DD	12d	.	.
.	12F#	.	.
.	12A	.	.
4DD	12d	2A	2dd
.	12F#	.	.
.	12A	.	.
4DD	12d	.	.
.	12F#	.	.
.	12A	.	.
=50	=50	=50	=50
4r	12G	1B-	2cc#
.	12e	.	.
.	12c#	.	.
4DD	12G	.	.
.	12e	.	.
.	12c#	.	.
4DD	12g	.	2g
.	12e	.	.
.	12c#	.	.
4DD	12G	.	.
.	12e	.	.
.	12c#	.	.
=51	=51	=51	=51
2DD	12d	2A	2f#
.	12F#	.	.
.	12A	.	.
.	12d	.	.
.	12F#	.	.
.	12A	.	.
4DD	12d	4d	4d
.	12F#	.	.
.	12A	.	.
4DD	12d	4d	4d
.	12F#	.	.
.	12A	.	.
=52	=52	=52	=52
2DD	4d	2d	2d
.	2.r	.	.
2r	.	2r	2r
=53	=53	=53	=53
4r	4r	4r	2.ff
4B-	4B-	4d	.
4B-	4f	4d	.
4B-	4f	4d	16ee-
.	.	.	16dd
.	.	.	16cc
.	.	.	16b-
=54	=54	=54	=54
4r	4r	4r	8ff
.	.	.	8ee-
4B-	4g	4e-	4.ee-
4B-	4g	4e-	.
.	.	.	8ee-
4B-	4g	4e-	8ff
.	.	.	8gg
=55	=55	=55	=55
4r	4r	4r	8gg
.	.	.	8cc
4A	4f	4e-	4.cc
4A	4f	4e-	.
.	.	.	8cc
4A	4f	4e-	8dd
.	.	.	8ee-
=56	=56	=56	=56
4r	4r	4r	12ee-
.	.	.	12dd
.	.	.	12ee-
4B-	4f	4d	4.dd
4B-	4f	4d	.
.	.	.	8ff
4D	4f	4b-	8ff
.	.	.	8bb-
=57	=57	=57	=57
4r	4r	4r	8bb-
.	.	.	8cc
4E-	4g	4b-	4.cc
4F	4f	4a	.
.	.	.	8cc
4F	4c	4a	8dd
.	.	.	8ee-
=58	=58	=58	=58
4r	4r	4r	8dd
.	.	.	16cc
.	.	.	16b-
4BB-	4d	4b-	4b-
4BB-	4d	4b-	2r
4BB-	4d	4b-	.
=59	=59	=59	=59
4r	4r	4r	[3..f
4BB-	4F	4d	.
4BB-	4F	4d	.
.	.	.	24f]
.	.	.	8f
4BB-	4B-	4d	8g
.	.	.	8d
=60	=60	=60	=60
4r	4r	4r	8f
.	.	.	8e-
4BB-	4G	4c	4.e-
4BB-	4G	4c	.
.	.	.	8e-
4BB-	4G	4c	8f
.	.	.	8g
=61	=61	=61	=61
4r	4r	4r	8g
.	.	.	8c
4AA	4F	4e-	4.c
4AA	4F	4e-	.
.	.	.	8c
4AA	4F	4c	8d
.	.	.	8e-
=62	=62	=62	=62
4r	4r	4r	8e-
.	.	.	16d
.	.	.	16e-
4BB-	4F	4d	4.d
4BB-	4F	4d	.
.	.	.	8f
4DD	4F	4B-	8f
.	.	.	8b-
=63	=63	=63	=63
4r	4r	4r	8b-
.	.	.	8c
4EE-	4G	4B-	4.c
4FF	4F	4A	.
.	.	.	8c
4FF	4C	4A	8d
.	.	.	8e-
=64	=64	=64	=64
4r	4r	4r	8e-
.	.	.	8d
4AA-	4F	4B-	4.d
4AA-	4F	4B-	.
.	.	.	8f
4AA-	4F	4B-	8a-
.	.	.	8f
=65	=65	=65	=65
4r	4r	4r	12f
.	.	.	12d
.	.	.	12e-
4GG	4G	4B-	4.e-
4GG	4G	4B-	.
.	.	.	8g
4GG	4E-	4B-	8b-
.	.	.	8g
=66	=66	=66	=66
4r	4r	4r	12e
.	.	.	12g
.	.	.	12f
4DD	4D	4B-	4.f
4DD	4D	4B-	.
.	.	.	8a-
4DD	4D	4B-	8cc
.	.	.	8a-
=67	=67	=67	=67
4r	4r	4r	8a-
.	.	.	8g
4EE-	4E-	4B-	8g
.	.	.	8ee-
4EE-	4G	4B-	4.ee-
4EE-	4G	4c	.
.	.	.	16dd
.	.	.	16cc
=68	=68	=68	=68
4r	4r	12c	2a
.	.	12a	.
.	.	12f	.
4FF	4F	12c	.
.	.	12a	.
.	.	12f	.
4FF	4F	12c	2r
.	.	12a	.
.	.	12f	.
4FF	4F	12c	.
.	.	12a	.
.	.	12f	.
=69	=69	=69	=69
4r	4r	12c	1a
.	.	12a	.
.	.	12e-	.
4F	4E-	12c	.
.	.	12a	.
.	.	12e-	.
4F	4E-	12c	.
.	.	12a	.
.	.	12e-	.
4F	4E-	12c	.
.	.	12a	.
.	.	12e-	.
=70	=70	=70	=70
4r	4r	12d	12b-
.	.	12b-	12ff
.	.	12f	12dd
4F	4D	12d	12b-
.	.	12b-	12f
.	.	12f	12d
4F	4d	12d	12B-
.	.	12b-	12d
.	.	12f	12f
4F	4d	12d	12b-
.	.	12b-	12dd
.	.	12f	12ff
=71	=71	=71	=71
4r	4r	12c	1ee-
.	.	12a	.
.	.	12e-	.
4F	4A	12c	.
.	.	12a	.
.	.	12e-	.
4F	4A	12c	.
.	.	12a	.
.	.	12e-	.
4F	4A	12c	.
.	.	12a	.
.	.	12e-	.
=72	=72	=72	=72
4r	4r	12d	12dd
.	.	12b-	12bb-
.	.	12f	12ff
4F	4B-	12d	12dd
.	.	12b-	12b-
.	.	12f	12f
4F	4B-	12d	12d
.	.	12b-	12B-
.	.	12f	12d
4F	4B-	12d	12f
.	.	12b-	12b-
.	.	12f	12dd
=73	=73	=73	=73
4r	4r	12d	1ff
.	.	12b	.
.	.	12a-	.
4D	4B	12d	.
.	.	12b	.
.	.	12a-	.
4D	4B	12d	.
.	.	12b	.
.	.	12a-	.
4D	4B	12d	.
.	.	12b	.
.	.	12a-	.
=74	=74	=74	=74
4r	4r	12e-	12ee-
.	.	12cc	12dd
.	.	12g	12cc
4E-	4G	12e-	12cc
.	.	12cc	12cc
.	.	12g	12cc
4E-	4G	12e-	12cc
.	.	12cc	12cc
.	.	12g	12cc
4E-	4G	12e-	12cc
.	.	12cc	12ee-
.	.	12g	12cc
=75	=75	=75	=75
4r	4r	12f	12a
.	.	12cc	12g
.	.	12a	12f
4E-	4A	12f	12f
.	.	12cc	12f
.	.	12a	12f
4E-	4A	12f	12f
.	.	12cc	12f
.	.	12a	12f
4E-	4A	12f	12f
.	.	12cc	12a
.	.	12a	12f
=76	=76	=76	=76
4D	4B-	12f	12f
.	.	12dd	12b-
.	.	12b-	12f
4r	4r	12f	12f
.	.	12dd	12f
.	.	12b-	12f
4AA	4c	12f	12f
.	.	12ee-	12cc
.	.	12cc	12f
4r	4r	12f	12f
.	.	12ee-	12f
.	.	12cc	12f
=77	=77	=77	=77
4BB-	4B-	4dd	12f
.	.	.	12dd
.	.	.	12cc
4r	4r	4r	12b-
.	.	.	12a
.	.	.	12b-
4D	4B-	4B-	12f
.	.	.	12b-
.	.	.	12a
4r	4r	4r	12a-
.	.	.	12g
.	.	.	12f#
=78	=78	=78	=78
4E-	4B-	4B-	12g
.	.	.	12ee-
.	.	.	12dd
2.r	2.r	2.r	12cc
.	.	.	12ff#
.	.	.	12gg
.	.	.	12dd
.	.	.	12ee-
.	.	.	12b
.	.	.	12cc
.	.	.	12ee-
.	.	.	12g
=79	=79	=79	=79
4E-	4F	4c	12b-
.	.	.	12a
.	.	.	12cc
4r	4r	4r	12ff
.	.	.	12cc
.	.	.	12a
4D	4F	4B-	12b-
.	.	.	12bb-
.	.	.	12aa
4r	4r	4r	12aa-
.	.	.	12gg
.	.	.	12ff#
=80	=80	=80	=80
4E-	4B-	4B-	12gg
.	.	.	12bb-
.	.	.	12dd
8.r	8.r	8.r	12ee-
.	.	.	12gg
.	.	.	12e
16G	16d-	16b-	.
4F	4d	4b-	4f
4F	4e-	4a	4cc
=81	=81	=81	=81
4BB-	4d	4b-	12b-
.	.	.	12ff
.	.	.	12ff
2.r	2.r	2.r	12ff
.	.	.	12ff
.	.	.	12ff
.	.	.	12ee
.	.	.	12ff
.	.	.	12ff
.	.	.	12ff
.	.	.	12ff
.	.	.	12ff
=82	=82	=82	=82
4FF	2r	12r	3..ff
.	.	12ff	.
.	.	12ee	.
2.r	.	12ee-	.
.	.	12dd	.
.	.	12dd-	.
.	4a	4cc	.
.	.	.	12ee
.	.	.	12ff
.	4b-	4dd-	12gg-
.	.	.	12ff
.	.	.	12ee
=83	=83	=83	=83
4FF	4a	12cc	3..ff
.	.	12f	.
.	.	12e	.
2.r	4r	12e-	.
.	.	12d	.
.	.	12d-	.
.	4A	4c	.
.	.	.	12ee
.	.	.	12ff
.	4B-	4d-	12gg-
.	.	.	12ff
.	.	.	12ee
=84	=84	=84	=84
4FF	4A	12c	2ff
.	.	12ff	.
.	.	12ee	.
4r	4r	12ee-	.
.	.	12dd	.
.	.	12dd-	.
12FF	12F	2cc	2eee-
12F	12f	.	.
12G-	12g-	.	.
12G	12g	.	.
12A-	12a-	.	.
12A	12a	.	.
=85	=85	=85	=85
12B-	12b-	3..b-	3..ddd
12D	12d	.	.
12E-	12e-	.	.
12E	12e	.	.
12F	12f	.	.
12F#	12f#	.	.
4G	4g	.	.
.	.	12b-	12dd
.	.	12b-	12dd
4E	4e	12b-	12dd
.	.	12b-	12dd
.	.	12b-	12dd
=86	=86	=86	=86
12F	12f	2b-	2dd
12F	12f	.	.
12F	12f	.	.
12F	12f	.	.
12F	12f	.	.
12F	12f	.	.
12F	12e-	2a	2cc
12F	12e-	.	.
12F	12e-	.	.
12F	12e-	.	.
12F	12e-	.	.
12F	12e-	.	.
=87	=87	=87	=87
[1BB-	4d	12b-	3..b-
.	.	12b-	.
.	.	12a	.
.	4d	12a-	.
.	.	12g	.
.	.	12f#	.
.	4e-	4..g	.
.	.	.	12b
.	.	.	12cc
.	8.e-	.	12dd
.	.	.	12ee-
.	.	.	12a
.	16c	16e-	.
=88	=88	=88	=88
1BB-_	4B-	12d	3..b-
.	.	12b-	.
.	.	12a	.
.	4d	12a-	.
.	.	12g	.
.	.	12f#	.
.	4e-	4..g	.
.	.	.	12b
.	.	.	12cc
.	8.e-	.	12dd
.	.	.	12ee-
.	.	.	12e-
.	16c	16A	.
=89	=89	=89	=89
2BB-_	2c	2A	2e-
4BB-]	4d	4B-	4d
4r	4r	4r	4r
==	==	==	==
*-	*-	*-	*-
!!!RWG1: This file contains only pitch and duration data.
!!!RWG2: Transposing instruments are not transposed.
!!!RWG3: Spines may have incompatible meters.
!!!RWG4: Durations of rests and tied notes may be interpreted.
!!!RWG: Key is interpreted using the Humdrum key tool.
!!!GTL: 6 Divertimentos
!!!AFT: stage1
!!!END: 1997/04/15
!!!KEY: 1734351753
!!!EMD: Converted from MuseData to Humdrum Dec 16, 2000, by Andreas Kornstaedt using muse2kern.
!!!EMD: Manual editing by Craig Sapp, Nov 2001
